gama.ui.shared/icons_svg/dark/generic/menu.delete.svg

<svg height="25" viewBox="-706.774 -3167.932 25 25" width="25" xmlns="http://www.w3.org/2000/svg"><g fill="none"><path d="m-702.4341-3167.4315h16.32c2.1208 0 3.84 1.7192 3.84 3.84v16.32c0 2.1208-1.7192 3.84-3.84 3.84h-16.32c-2.1208 0-3.84-1.7192-3.84-3.84v-16.32c0-2.1208 1.7192-3.84 3.84-3.84z" fill="#666"/><path d="m-702.4341-3167.4315h16.32c2.1208 0 3.84 1.7192 3.84 3.84v16.32c0 2.1208-1.7192 3.84-3.84 3.84h-16.32c-2.1208 0-3.84-1.7192-3.84-3.84v-16.32c0-2.1208 1.7192-3.84 3.84-3.84z" stroke="#fff" stroke-linecap="round" stroke-linejoin="round" stroke-width=".25"/><path d="m-693.07665-3155.9997 2.1208-2.1208c.16005-.1601.40815-.1601.56825 0 .16.16.16.4081 0 .5682l-2.1208 2.1208 2.1208 2.1208c.16.16.16.4081 0 .5682-.1601.1601-.4082.1601-.56825 0l-2.1208-2.1208-2.12079 2.1208c-.16006.1601-.40816.1601-.56822 0-.16004-.1601-.16004-.4082 0-.5682l2.12076-2.1208-2.12076-2.1208c-.16004-.1601-.16004-.4082 0-.5682.16006-.1601.40816-.1601.56822 0zm-4.97785 4.5377c.2241.272.5682.432.9203.432h8.85135c.66425 0 1.20045-.536 1.20045-1.2003v-6.4024c0-.6643-.5362-1.2003-1.20045-1.2003h-8.84335c-.3601 0-.6962.16-.9203.432l-3.31325 3.9695zm-4.1296-4.2256 3.52136-4.2254c.37614-.4564.94434-.7205 1.53654-.7205h8.85135c1.10445 0 2.00075.8965 2.00075 2.0008v6.4024c0 1.1043-.8963 2.0007-2.00075 2.0007h-8.85135c-.5922 0-1.1604-.2641-1.53654-.7204l-3.52136-4.2254c-.12-.1521-.12-.3601 0-.5122z" fill="#fc6d7e"/></g></svg>

<?xml version="1.0" encoding="UTF-8" standalone="no"?>
<!DOCTYPE svg PUBLIC "-//W3C//DTD SVG 1.1//EN" "http://www.w3.org/Graphics/SVG/1.1/DTD/svg11.dtd">
<svg xmlns:dc="http://purl.org/dc/elements/1.1/" version="1.1" xmlns="http://www.w3.org/2000/svg" xmlns:xl="http://www.w3.org/1999/xlink" viewBox="-706.7741 -3167.9315 25 25" width="25" height="25">
  <defs/>
  <g id="SOURCES" stroke="none" stroke-dasharray="none" fill-opacity="1" stroke-opacity="1" fill="none">
    <title>SOURCES</title>
    <g id="SOURCES_Dark">
      <title>Dark</title>
      <g id="Graphic_11318">
        <path d="M -702.4341 -3167.4315 L -686.1141 -3167.4315 C -683.9933 -3167.4315 -682.2741 -3165.7123 -682.2741 -3163.5915 L -682.2741 -3147.2715 C -682.2741 -3145.1507 -683.9933 -3143.4315 -686.1141 -3143.4315 L -702.4341 -3143.4315 C -704.5549 -3143.4315 -706.2741 -3145.1507 -706.2741 -3147.2715 L -706.2741 -3163.5915 C -706.2741 -3165.7123 -704.5549 -3167.4315 -702.4341 -3167.4315 Z" fill="#666"/>
        <path d="M -702.4341 -3167.4315 L -686.1141 -3167.4315 C -683.9933 -3167.4315 -682.2741 -3165.7123 -682.2741 -3163.5915 L -682.2741 -3147.2715 C -682.2741 -3145.1507 -683.9933 -3143.4315 -686.1141 -3143.4315 L -702.4341 -3143.4315 C -704.5549 -3143.4315 -706.2741 -3145.1507 -706.2741 -3147.2715 L -706.2741 -3163.5915 C -706.2741 -3165.7123 -704.5549 -3167.4315 -702.4341 -3167.4315 Z" stroke="white" stroke-linecap="round" stroke-linejoin="round" stroke-width=".25"/>
      </g>
      <g id="Graphic_11317">
        <path d="M -693.07665 -3155.9997 L -690.95585 -3158.1205 C -690.7958 -3158.2806 -690.5477 -3158.2806 -690.3876 -3158.1205 C -690.2276 -3157.9605 -690.2276 -3157.7124 -690.3876 -3157.5523 L -692.5084 -3155.4315 L -690.3876 -3153.3107 C -690.2276 -3153.1507 -690.2276 -3152.9026 -690.3876 -3152.7425 C -690.5477 -3152.5824 -690.7958 -3152.5824 -690.95585 -3152.7425 L -693.07665 -3154.8633 L -695.19744 -3152.7425 C -695.3575 -3152.5824 -695.6056 -3152.5824 -695.76566 -3152.7425 C -695.9257 -3152.9026 -695.9257 -3153.1507 -695.76566 -3153.3107 L -693.6449 -3155.4315 L -695.76566 -3157.5523 C -695.9257 -3157.7124 -695.9257 -3157.9605 -695.76566 -3158.1205 C -695.6056 -3158.2806 -695.3575 -3158.2806 -695.19744 -3158.1205 L -693.07665 -3155.9997 Z M -698.0545 -3151.462 C -697.8304 -3151.19 -697.4863 -3151.03 -697.1342 -3151.03 L -688.28285 -3151.03 C -687.6186 -3151.03 -687.0824 -3151.566 -687.0824 -3152.2303 L -687.0824 -3158.6327 C -687.0824 -3159.297 -687.6186 -3159.833 -688.28285 -3159.833 L -697.1262 -3159.833 C -697.4863 -3159.833 -697.8224 -3159.673 -698.0465 -3159.401 L -701.35975 -3155.4315 Z M -702.1841 -3155.6876 L -698.66274 -3159.913 C -698.2866 -3160.3694 -697.7184 -3160.6335 -697.1262 -3160.6335 L -688.27485 -3160.6335 C -687.1704 -3160.6335 -686.2741 -3159.737 -686.2741 -3158.6327 L -686.2741 -3152.2303 C -686.2741 -3151.126 -687.1704 -3150.2296 -688.27485 -3150.2296 L -697.1262 -3150.2296 C -697.7184 -3150.2296 -698.2866 -3150.4937 -698.66274 -3150.95 L -702.1841 -3155.1754 C -702.3041 -3155.3275 -702.3041 -3155.5355 -702.1841 -3155.6876 Z" fill="#fc6d7e"/>
      </g>
    </g>
  </g>
</svg>
